Simply-Green-Circles/scalable/apps/mx-viewer.svg

<svg xmlns="http://www.w3.org/2000/svg" width="48" height="48" viewBox="0 0 12.7 12.7"><path d="M6.34.07a6.29 6.29 0 0 0-6.29 6.3 6.29 6.29 0 0 0 6.3 6.28 6.29 6.29 0 0 0 6.28-6.29A6.29 6.29 0 0 0 6.34.07zm-.01.94a5.4 5.4 0 0 1 5.4 5.4 5.4 5.4 0 0 1-5.4 5.41 5.4 5.4 0 0 1-5.41-5.4A5.4 5.4 0 0 1 6.32 1zM3.18 3.1a4.6 4.6 0 0 0-.07.06 4.6 4.6 0 0 0-.31.33 4.6 4.6 0 0 0-.17.23h3V3.1H3.19zm3.22.06V6.7h3.44V3.17H6.4zm.45.46H9.4v2.6H6.85v-2.6zm-4.67.83a4.6 4.6 0 0 0-.1.22 4.6 4.6 0 0 0-.15.4h3.7v-.62H2.19zM1.77 5.8a4.6 4.6 0 0 0-.03.2 4.6 4.6 0 0 0-.02.42h3.92v-.62H1.77zm0 1.35a4.6 4.6 0 0 0 .01.1 4.6 4.6 0 0 0 .1.44 4.6 4.6 0 0 0 .03.09h8.83a4.6 4.6 0 0 0 .1-.4 4.6 4.6 0 0 0 .03-.23h-9.1zm.42 1.36a4.6 4.6 0 0 0 .02.04 4.6 4.6 0 0 0 .23.4 4.6 4.6 0 0 0 .13.18h7.5a4.6 4.6 0 0 0 .05-.07 4.6 4.6 0 0 0 .25-.39 4.6 4.6 0 0 0 .07-.16H2.2zm1.03 1.35a4.6 4.6 0 0 0 .13.13 4.6 4.6 0 0 0 .37.28 4.6 4.6 0 0 0 .35.21h4.5a4.6 4.6 0 0 0 .24-.14 4.6 4.6 0 0 0 .38-.27 4.6 4.6 0 0 0 .24-.21H3.22z" fill="#2ca02c"/></svg>

<?xml version="1.0" encoding="UTF-8" standalone="no"?>
<svg
   xmlns:dc="http://purl.org/dc/elements/1.1/"
   xmlns:cc="http://creativecommons.org/ns#"
   xmlns:rdf="http://www.w3.org/1999/02/22-rdf-syntax-ns#"
   xmlns:svg="http://www.w3.org/2000/svg"
   xmlns="http://www.w3.org/2000/svg"
   xmlns:sodipodi="http://sodipodi.sourceforge.net/DTD/sodipodi-0.dtd"
   xmlns:inkscape="http://www.inkscape.org/namespaces/inkscape"
   width="48"
   height="48"
   viewBox="0 0 12.7 12.7"
   version="1.1"
   id="svg4"
   sodipodi:docname="mx-viewer.svg"
   inkscape:version="0.92.4 (5da689c313, 2019-01-14)">
  <metadata
     id="metadata10">
    <rdf:RDF>
      <cc:Work
         rdf:about="">
        <dc:format>image/svg+xml</dc:format>
        <dc:type
           rdf:resource="http://purl.org/dc/dcmitype/StillImage" />
        <dc:title></dc:title>
      </cc:Work>
    </rdf:RDF>
  </metadata>
  <defs
     id="defs8" />
  <sodipodi:namedview
     pagecolor="#ffffff"
     bordercolor="#666666"
     borderopacity="1"
     objecttolerance="10"
     gridtolerance="10"
     guidetolerance="10"
     inkscape:pageopacity="0"
     inkscape:pageshadow="2"
     inkscape:window-width="1087"
     inkscape:window-height="480"
     id="namedview6"
     showgrid="false"
     inkscape:zoom="4.9166667"
     inkscape:cx="2.1355932"
     inkscape:cy="24"
     inkscape:window-x="0"
     inkscape:window-y="25"
     inkscape:window-maximized="0"
     inkscape:current-layer="svg4" />
  <path
     d="M 6.34,0.07 A 6.29,6.29 0 0 0 0.05,6.37 6.29,6.29 0 0 0 6.35,12.65 6.29,6.29 0 0 0 12.63,6.36 6.29,6.29 0 0 0 6.34,0.07 Z M 6.33,1.01 a 5.4,5.4 0 0 1 5.4,5.4 5.4,5.4 0 0 1 -5.4,5.41 A 5.4,5.4 0 0 1 0.92,6.42 5.4,5.4 0 0 1 6.32,1 Z M 3.18,3.1 A 4.6,4.6 0 0 0 3.11,3.16 4.6,4.6 0 0 0 2.8,3.49 4.6,4.6 0 0 0 2.63,3.72 h 3 V 3.1 H 3.19 Z M 6.4,3.16 V 6.7 H 9.84 V 3.17 H 6.4 Z M 6.85,3.62 H 9.4 v 2.6 H 6.85 Z M 2.18,4.45 a 4.6,4.6 0 0 0 -0.1,0.22 4.6,4.6 0 0 0 -0.15,0.4 h 3.7 V 4.45 H 2.19 Z M 1.77,5.8 A 4.6,4.6 0 0 0 1.74,6 4.6,4.6 0 0 0 1.72,6.42 H 5.64 V 5.8 Z m 0,1.35 a 4.6,4.6 0 0 0 0.01,0.1 4.6,4.6 0 0 0 0.1,0.44 4.6,4.6 0 0 0 0.03,0.09 h 8.83 a 4.6,4.6 0 0 0 0.1,-0.4 4.6,4.6 0 0 0 0.03,-0.23 z m 0.42,1.36 a 4.6,4.6 0 0 0 0.02,0.04 4.6,4.6 0 0 0 0.23,0.4 4.6,4.6 0 0 0 0.13,0.18 h 7.5 A 4.6,4.6 0 0 0 10.12,9.06 4.6,4.6 0 0 0 10.37,8.67 4.6,4.6 0 0 0 10.44,8.51 H 2.2 Z m 1.03,1.35 a 4.6,4.6 0 0 0 0.13,0.13 4.6,4.6 0 0 0 0.37,0.28 4.6,4.6 0 0 0 0.35,0.21 h 4.5 A 4.6,4.6 0 0 0 8.81,10.34 4.6,4.6 0 0 0 9.19,10.07 4.6,4.6 0 0 0 9.43,9.86 Z"
     id="path2"
     inkscape:connector-curvature="0"
     style="fill:#2ca02c" />
</svg>
